X:6
T:T\'amhle je jablo\vnka
O:Tjechie
M:3/4
L:1/8
Q:1/4=
K:C             %transposed from D
V:1
"C" G2 G2 E2 |"G7" F2 F2 D2 |"C" E2 E2 F2 |"G7" A2 G4 |\
"C" G2 G2 E2 |"G7" F2 F2 D2 |"C" E2 E2 "F" F2 |"G7" D2 "C" C2 z2 |
"C" E2 E2 "F" F2 |"G7" A2 G2 G2 |"C" E2 E2 "F" F2 |"G7" A2 G4 |\
"C" G2 G2 "A7" E2 |"Dm" F2 F2 "G" D2 |"C" E2 E2 "F" F2 |"G7" D2 "C" C4 |
